static/images/icons/heuristic_evaluation.svg

<svg fill="none" height="80" viewBox="0 0 55 80" width="55" xmlns="http://www.w3.org/2000/svg"><g fill="currentColor"><path d="m53.4194 0h-52.12908c-.68817 0-1.29032.602151-1.29032 1.29032v77.41938c0 .6882.60215 1.2903 1.29032 1.2903h52.04298c.6882 0 1.2903-.6021 1.2903-1.2903v-77.41938c.0861-.688169-.5161-1.29032-1.2042-1.29032zm-1.2904 77.4194h-49.54835v-74.83875h49.46235v74.83875z"/><path d="m10.1503 65.2042c.2581.4301.6882.6021 1.1183.6021s.8602-.258 1.1183-.6021l5.0753-8.6882c.3441-.6022.172-1.3763-.4301-1.8065-.6022-.344-1.3764-.172-1.8065.4302l-3.957 6.7957-1.1183-1.8065c-.34405-.6021-1.11824-.8602-1.80642-.4301-.60215.3441-.86021 1.1183-.4301 1.8064z"/><path d="m21.8492 64.43h23.7419c.6882 0 1.2903-.6021 1.2903-1.2903s-.6021-1.2903-1.2903-1.2903h-23.7419c-.6882 0-1.2904.6021-1.2904 1.2903s.6022 1.2903 1.2904 1.2903z"/><path d="m21.8492 58.5806h23.7419c.6882 0 1.2903-.6021 1.2903-1.2903 0-.6881-.6021-1.2903-1.2903-1.2903h-23.7419c-.6882 0-1.2904.6022-1.2904 1.2903 0 .6882.6022 1.2903 1.2904 1.2903z"/><path d="m10.1502 24.774c.2581.4301.6882.6021 1.1183.6021s.8602-.258 1.1183-.6021l5.0753-8.6882c.3441-.6021.172-1.3763-.4301-1.8064-.6022-.3441-1.3764-.1721-1.8065.4301l-3.957 6.7957-1.1183-1.8065c-.34404-.6021-1.11823-.8602-1.8064-.4301s-.86022 1.1183-.43011 1.8065z"/><path d="m21.8492 23.9998h23.7419c.6882 0 1.2903-.6021 1.2903-1.2903s-.6021-1.2903-1.2903-1.2903h-23.7419c-.6882 0-1.2904.6021-1.2904 1.2903s.6022 1.2903 1.2904 1.2903z"/><path d="m21.8492 18.1505h23.7419c.6882 0 1.2903-.6022 1.2903-1.2904 0-.6881-.6021-1.2903-1.2903-1.2903h-23.7419c-.6882 0-1.2904.6022-1.2904 1.2903 0 .6882.6022 1.2904 1.2904 1.2904z"/><path d="m10.1503 44.9891c.2581.4301.6882.6021 1.1183.6021s.8602-.258 1.1183-.6021l5.0753-8.6882c.3441-.6021.172-1.3763-.4301-1.8064-.6022-.3441-1.3764-.1721-1.8065.4301l-3.957 6.7957-1.1183-1.8065c-.34405-.6021-1.11824-.8602-1.80642-.4301-.60215.3441-.86021 1.1183-.4301 1.8065z"/><path d="m21.8492 44.2149h23.7419c.6882 0 1.2903-.6021 1.2903-1.2903s-.6021-1.2903-1.2903-1.2903h-23.7419c-.6882 0-1.2904.6021-1.2904 1.2903s.6022 1.2903 1.2904 1.2903z"/><path d="m21.8492 38.3656h23.7419c.6882 0 1.2903-.6022 1.2903-1.2904 0-.6881-.6021-1.2903-1.2903-1.2903h-23.7419c-.6882 0-1.2904.6022-1.2904 1.2903 0 .6882.6022 1.2904 1.2904 1.2904z"/></g></svg>

<svg width="55" height="80" viewBox="0 0 55 80" fill="none" xmlns="http://www.w3.org/2000/svg">
<path d="M53.4194 0H1.29032C0.60215 0 0 0.602151 0 1.29032V78.7097C0 79.3979 0.60215 80 1.29032 80H53.3333C54.0215 80 54.6236 79.3979 54.6236 78.7097V1.29032C54.7097 0.602151 54.1075 0 53.4194 0ZM52.129 77.4194H2.58065V2.58065H52.043V77.4194H52.129Z" fill="currentColor"/>
<path d="M10.1503 65.2042C10.4084 65.6343 10.8385 65.8063 11.2686 65.8063C11.6987 65.8063 12.1288 65.5483 12.3869 65.2042L17.4622 56.516C17.8063 55.9138 17.6342 55.1397 17.0321 54.7095C16.4299 54.3655 15.6557 54.5375 15.2256 55.1397L11.2686 61.9354L10.1503 60.1289C9.80625 59.5268 9.03206 59.2687 8.34388 59.6988C7.74173 60.0429 7.48367 60.8171 7.91378 61.5052L10.1503 65.2042Z" fill="currentColor"/>
<path d="M21.8492 64.43H45.5911C46.2793 64.43 46.8814 63.8279 46.8814 63.1397C46.8814 62.4515 46.2793 61.8494 45.5911 61.8494H21.8492C21.161 61.8494 20.5588 62.4515 20.5588 63.1397C20.5588 63.8279 21.161 64.43 21.8492 64.43Z" fill="currentColor"/>
<path d="M21.8492 58.5806H45.5911C46.2793 58.5806 46.8814 57.9785 46.8814 57.2903C46.8814 56.6022 46.2793 56 45.5911 56H21.8492C21.161 56 20.5588 56.6022 20.5588 57.2903C20.5588 57.9785 21.161 58.5806 21.8492 58.5806Z" fill="currentColor"/>
<path d="M10.1502 24.774C10.4083 25.2041 10.8384 25.3761 11.2685 25.3761C11.6986 25.3761 12.1287 25.1181 12.3868 24.774L17.4621 16.0858C17.8062 15.4837 17.6341 14.7095 17.032 14.2794C16.4298 13.9353 15.6556 14.1073 15.2255 14.7095L11.2685 21.5052L10.1502 19.6987C9.80616 19.0966 9.03197 18.8385 8.3438 19.2686C7.65563 19.6987 7.48358 20.3869 7.91369 21.0751L10.1502 24.774Z" fill="currentColor"/>
<path d="M21.8492 23.9998H45.5911C46.2793 23.9998 46.8814 23.3977 46.8814 22.7095C46.8814 22.0213 46.2793 21.4192 45.5911 21.4192H21.8492C21.161 21.4192 20.5588 22.0213 20.5588 22.7095C20.5588 23.3977 21.161 23.9998 21.8492 23.9998Z" fill="currentColor"/>
<path d="M21.8492 18.1505H45.5911C46.2793 18.1505 46.8814 17.5483 46.8814 16.8601C46.8814 16.172 46.2793 15.5698 45.5911 15.5698H21.8492C21.161 15.5698 20.5588 16.172 20.5588 16.8601C20.5588 17.5483 21.161 18.1505 21.8492 18.1505Z" fill="currentColor"/>
<path d="M10.1503 44.9891C10.4084 45.4192 10.8385 45.5912 11.2686 45.5912C11.6987 45.5912 12.1288 45.3332 12.3869 44.9891L17.4622 36.3009C17.8063 35.6988 17.6342 34.9246 17.0321 34.4945C16.4299 34.1504 15.6557 34.3224 15.2256 34.9246L11.2686 41.7203L10.1503 39.9138C9.80625 39.3117 9.03206 39.0536 8.34388 39.4837C7.74173 39.8278 7.48367 40.602 7.91378 41.2902L10.1503 44.9891Z" fill="currentColor"/>
<path d="M21.8492 44.2149H45.5911C46.2793 44.2149 46.8814 43.6128 46.8814 42.9246C46.8814 42.2364 46.2793 41.6343 45.5911 41.6343H21.8492C21.161 41.6343 20.5588 42.2364 20.5588 42.9246C20.5588 43.6128 21.161 44.2149 21.8492 44.2149Z" fill="currentColor"/>
<path d="M21.8492 38.3656H45.5911C46.2793 38.3656 46.8814 37.7634 46.8814 37.0752C46.8814 36.3871 46.2793 35.7849 45.5911 35.7849H21.8492C21.161 35.7849 20.5588 36.3871 20.5588 37.0752C20.5588 37.7634 21.161 38.3656 21.8492 38.3656Z" fill="currentColor"/>
</svg>
